X:1
T:Title
%%score { ( 1 3 ) | ( 2 4 ) }
L:1/8
Q:1/4=116
M:3/4
K:G
V:1 treble nm="Grand Piano"
V:3 treble 
V:2 treble 
V:4 treble 
V:1
 B3 B B2 | [Fd]2 [Fc]2 [GB]2 | [FA]4 [FB]2 | [B,DG]6 | [EG]2 [Ec]2 e2 | d3 B [GB]2 | B2 z2 z2 | %7
w: Harry~W.~Miller * *|||||||
[M:7/8] d-d-d- d- d3 |[M:3/4] d2 e2 d2 | [FB]2 [FA]2 [=FG]2 | [EG]4 [=FG]2 | %11
w: ||||
[M:7/8] [EG]- [EG]3 A3 |[M:3/4] [GB]2 [Gd]2 [EGc]2 | [DGB]4 [B,DG]2 | [CFA]6 | [B,G]6 | %16
w: |||||
 [Gd]2 [G^c]2 [Gd]2 | [Ge]4 [Gd]2 | [Fd]6 | [CFA]6 | [CFA]2 [B,=F^G]2 [C^FA]2 | [EFc]4 [DFB]2 | %22
w: ||||||
 [CFA]6 | [B,DG]6 | [EG]2 [^DF]2 [EG]2 | [EA]2 [EG]2 E2 | D6 |[M:9/8] B8- B | %28
w: ||||||
[M:3/4] [DGB]2 [B,DG]2 [EFc]2[Q:1/4=114][Q:1/4=112][Q:1/4=111][Q:1/4=109][Q:1/4=107][Q:1/4=105][Q:1/4=103][Q:1/4=102][Q:1/4=100][Q:1/4=98][Q:1/4=96][Q:1/4=94][Q:1/4=92][Q:1/4=91][Q:1/4=89] | %29
w: |
 [DFB]4 [CFA]2 | [B,DG]6 |] %31
w: ||
V:2
 [G,DG]3 [G,DG] [G,DG]2 | [D,A,]2 [D,A,]2 [D,B,]2 | [D,C]4 [D,D]2 | [G,,D,]6 | %4
 [C,G,]2 [C,G,]2[K:treble] [G,CG]2 | [G,B,G]3 [G,DG][K:bass] [E,^C]2 | [E,^C]4 [E,CE]2 | %7
[M:7/8] A,2 B,2 C3 |[M:3/4][K:treble] [G,B,G]2 [G,CG]2 [G,B,G]2 | [D,D]2 [D,C]2 [D,B,]2 | %10
 [E,C]4 [D,B,]2 |[M:7/8] C- C3- [^D,C^D]3 |[M:3/4] [D,D]2 [D,B,]2 D,2 | D,4 D,2 | D,6 | %15
 [G,,D,G,]6 | [D,B,]2 [E,_B,]2 [D,=B,]2 | [G,C]4 [D,B,]2 | [D,A,]6 | D,6 | D,2 D,2 D,2 | D,4 D,2 | %22
 D,6 | G,,6 | [C,C]2 [C,C]2 [C,C]2 | [C,C]2 [C,C]2 [C,G,C]2 | [D,G,B,]6 | %27
[M:9/8] [D,G,D]8- [D,G,D] |[M:3/4] D,2 D,2 D,2 | D,4 D,2 | [G,,D,]6 |] %31
V:3
 x6 | x6 | x6 | x6 | x6 | x6 | G2- [GA]2 G2 |[M:7/8] F2 G2 A3 |[M:3/4] x6 | x6 | x6 |[M:7/8] x7 | %12
[M:3/4] x6 | x6 | x6 | x6 | x6 | x6 | x6 | x6 | x6 | x6 | x6 | x6 | x6 | x6 | x6 |[M:9/8] x9 | %28
[M:3/4] x6 | x6 | x6 |] %31
V:4
 x6 | x6 | x6 | x6 | x4[K:treble] x2 | x4[K:bass] x2 | x6 |[M:7/8] D,-D,-D,- D,- D,2- D,/ z/ | %8
[M:3/4][K:treble] x6 | x6 | x6 |[M:7/8] C,- C,3 z z2 |[M:3/4] x6 | x6 | x6 | x6 | x6 | x6 | x6 | %19
 x6 | x6 | x6 | x6 | x6 | x6 | x6 | x6 |[M:9/8] x9 |[M:3/4] x6 | x6 | x6 |] %31

